public/images/twitter.svg

<svg width="16" height="13" viewBox="0 0 16 13" fill="none" xmlns="http://www.w3.org/2000/svg">
<path d="M15.0314 1.69345C14.4708 1.9426 13.8791 2.09832 13.2562 2.19175C13.8791 1.81803 14.3774 1.2263 14.5954 0.509997C14.0037 0.852576 13.3497 1.10172 12.6334 1.25744C12.0728 0.665715 11.2631 0.291992 10.391 0.291992C8.70928 0.291992 7.33896 1.66231 7.33896 3.34406C7.33896 3.59321 7.37011 3.81121 7.4324 4.02922C4.90977 3.90464 2.63629 2.69005 1.11026 0.821433C0.861108 1.28859 0.70539 1.78688 0.70539 2.34747C0.70539 3.40635 1.23483 4.34065 2.07571 4.90124C1.57741 4.87009 1.11026 4.74552 0.674247 4.52751V4.55866C0.674247 6.05355 1.73313 7.29929 3.13459 7.57958C2.88544 7.64187 2.60515 7.67301 2.32485 7.67301C2.13799 7.67301 1.91999 7.64187 1.73313 7.61073C2.13799 8.82533 3.25916 9.72849 4.59833 9.72849C3.53945 10.5382 2.23142 11.0365 0.798821 11.0365C0.549673 11.0365 0.300524 11.0365 0.0825195 11.0054C1.45284 11.8774 3.04116 12.3757 4.78519 12.3757C10.4222 12.3757 13.5054 7.70416 13.5054 3.6555C13.5054 3.53092 13.5054 3.3752 13.5054 3.25063C14.0971 2.84576 14.6266 2.31632 15.0314 1.69345Z" fill="#151515"/>
</svg>

<svg xmlns="http://www.w3.org/2000/svg" width="16" height="13" fill="none"><path fill="#151515" d="M15.031 1.693c-.56.25-1.152.405-1.775.499A3 3 0 0 0 14.596.51a6.8 6.8 0 0 1-1.963.747 3.1 3.1 0 0 0-2.242-.965 3.057 3.057 0 0 0-3.052 3.052c0 .25.031.467.093.685A8.73 8.73 0 0 1 1.11.821c-.249.468-.405.966-.405 1.526a3.05 3.05 0 0 0 1.37 2.554 3.6 3.6 0 0 1-1.4-.373v.03a3.08 3.08 0 0 0 2.46 3.022c-.25.062-.53.093-.81.093-.187 0-.405-.031-.592-.062.405 1.214 1.526 2.117 2.865 2.117-1.059.81-2.367 1.309-3.8 1.309-.248 0-.497 0-.715-.032a8.67 8.67 0 0 0 4.702 1.37c5.637 0 8.72-4.67 8.72-8.72v-.404a5.6 5.6 0 0 0 1.526-1.558"/></svg>
